public/img/brands/sony.svg

<svg width="137" height="24" viewBox="0 0 137 24" fill="none" xmlns="http://www.w3.org/2000/svg">
<g clip-path="url(#clip0)">
<path d="M134.25 19.1876C133.483 19.1732 132.768 19.5772 132.381 20.2441C131.993 20.9111 131.993 21.737 132.381 22.4039C132.768 23.0709 133.483 23.4749 134.25 23.4604C134.812 23.4598 135.351 23.2337 135.748 22.8319C136.144 22.4302 136.366 21.8859 136.364 21.3191C136.364 20.7539 136.141 20.2117 135.745 19.812C135.348 19.4122 134.81 19.1876 134.25 19.1876ZM134.25 23.2034C133.754 23.204 133.279 23.0055 132.929 22.6519C132.579 22.2982 132.384 21.8186 132.385 21.3191C132.386 20.8213 132.582 20.344 132.932 19.9925C133.282 19.641 133.756 19.4442 134.25 19.4454C134.743 19.4454 135.215 19.6428 135.564 19.9942C135.912 20.3456 136.108 20.8222 136.108 21.3191C136.11 21.8177 135.916 22.2966 135.567 22.6502C135.218 23.0037 134.744 23.2028 134.25 23.2034Z" fill="black"/>
<path d="M135.261 20.8123C135.261 20.6169 135.175 20.4114 135.001 20.3133C134.827 20.2102 134.631 20.2 134.435 20.2H133.424V22.5149H133.707V21.4472H134.229L134.892 22.5149H135.229L134.528 21.4472C134.942 21.4356 135.261 21.2678 135.261 20.8123ZM134.142 21.2242H133.706V20.4056H134.369C134.658 20.4056 134.974 20.4491 134.974 20.8072C134.974 21.2787 134.467 21.2242 134.142 21.2242ZM122.021 9.62043L126.267 5.09878C126.514 4.76683 126.636 4.53439 126.636 4.33537C126.636 4.00342 126.35 3.87049 125.45 3.87049H124.378V1.01586H135.975V3.87049H134.451C132.692 3.87049 132.365 4.13562 129.909 7.22269L123.192 14.4573V18.8722C123.192 20.0017 123.763 20.399 125.401 20.399H127.937V23.1534H111.694V20.399H114.23C115.866 20.399 116.439 20.0017 116.439 18.8722V14.4573L108.527 5.72855C107.219 4.20244 107.4 3.87049 103.759 3.87049V1.01586H118.449V3.87049H117.403C116.339 3.87049 115.888 4.06952 115.888 4.46757C115.888 4.80025 116.215 5.06537 116.42 5.3305L120.423 9.68145C120.899 10.1747 121.479 10.2386 122.021 9.62043ZM23.4607 1.01514H27.0042V8.9805H23.7316C23.4418 7.3883 22.4424 6.76871 21.5313 5.93338C19.8873 4.42689 16.3271 3.17245 13.3328 3.17245C9.46804 3.17245 6.20641 4.36806 6.20641 6.12587C6.20641 11.0056 28.3087 7.12245 28.3087 16.3488C28.3087 21.161 23.5743 23.8493 15.0721 23.8493C12.1288 23.8493 7.6748 22.9384 5.04685 21.5467C4.22307 21.0724 3.87345 21.9956 3.71904 23.1527H0.0859473V14.9215H3.37234C4.09706 17.0127 5.09565 17.4434 6.01412 18.2737C7.60779 19.7344 11.4011 20.7971 14.8798 20.7629C20.1248 20.7114 21.9282 19.5681 21.9282 17.9083C21.9282 16.2493 20.1444 15.8505 14.3969 14.9549L9.51684 14.1581C4.00966 13.3278 0 12.1003 0 7.71952C0 3.17245 5.07235 0.317822 13.0924 0.317822C16.472 0.317822 19.2995 0.768171 22.0134 2.2979C22.7651 2.7853 23.4702 2.84341 23.4607 1.01514ZM92.6148 14.3513L92.6847 5.49829C92.6847 4.33682 92.0787 3.93877 90.3473 3.93877H88.313V1.18438H101.256V3.93877H99.5692C97.8364 3.93877 97.2304 4.33755 97.2304 5.49829V23.3212L92.1646 23.2813L75.7589 7.78853V19.04C75.7589 20.1688 76.3649 20.5995 78.0962 20.5995H80.3483V23.3212H66.9063V20.5995H69.1337C70.865 20.5995 71.471 20.168 71.471 19.04V5.49829C71.471 4.33682 70.865 3.93877 69.1337 3.93877H66.9063V1.18438H78.5281L92.6148 14.3513ZM49.2602 0.150757C38.945 0.150757 32.4881 4.69855 32.4881 11.9993C32.4881 19.1693 38.8555 23.6822 48.9455 23.6822C59.6627 23.6822 65.8968 19.2354 65.8968 11.6347C65.8975 4.79807 59.1703 0.150757 49.2602 0.150757ZM49.0256 20.7956C43.316 20.7956 40.034 17.5095 40.034 11.8337C40.034 6.29148 43.4587 3.00539 49.3112 3.00539C54.9254 3.00539 58.2074 6.35831 58.2074 12.0668C58.2074 17.6425 54.8773 20.7956 49.0256 20.7956Z" fill="black"/>
</g>
<defs>
<clipPath id="clip0">
<rect width="136.364" height="24" fill="white"/>
</clipPath>
</defs>
</svg>

<?xml version="1.0" encoding="UTF-8"?>
<svg fill="none" viewBox="0 0 137 24" xmlns="http://www.w3.org/2000/svg">
<g clip-path="url(#a)" fill="#000">
<path d="m134.25 19.188c-0.767-0.0144-1.482 0.3896-1.869 1.0565-0.388 0.667-0.388 1.4929 0 2.1598 0.387 0.667 1.102 1.071 1.869 1.0565 0.562-6e-4 1.101-0.2267 1.498-0.6285 0.396-0.4017 0.618-0.946 0.616-1.5128 0-0.5652-0.223-1.1074-0.619-1.5071-0.397-0.3998-0.935-0.6244-1.495-0.6244zm0 4.0158c-0.496 6e-4 -0.971-0.1979-1.321-0.5515-0.35-0.3537-0.545-0.8333-0.544-1.3328 1e-3 -0.4978 0.197-0.9751 0.547-1.3266s0.824-0.5483 1.318-0.5471c0.493 0 0.965 0.1974 1.314 0.5488 0.348 0.3514 0.544 0.828 0.544 1.3249 2e-3 0.4986-0.192 0.9775-0.541 1.3311-0.349 0.3535-0.823 0.5526-1.317 0.5532z"/>
<path d="m135.26 20.812c0-0.1954-0.086-0.4009-0.26-0.499-0.174-0.1031-0.37-0.1133-0.566-0.1133h-1.011v2.3149h0.283v-1.0677h0.522l0.663 1.0677h0.337l-0.701-1.0677c0.414-0.0116 0.733-0.1794 0.733-0.6349zm-1.119 0.4119h-0.436v-0.8186h0.663c0.289 0 0.605 0.0435 0.605 0.4016 0 0.4715-0.507 0.417-0.832 0.417zm-12.121-11.604 4.246-4.5216c0.247-0.33195 0.369-0.56439 0.369-0.76341 0-0.33195-0.286-0.46488-1.186-0.46488h-1.072v-2.8546h11.597v2.8546h-1.524c-1.759 0-2.086 0.26513-4.542 3.3522l-6.717 7.2346v4.4149c0 1.1295 0.571 1.5268 2.209 1.5268h2.536v2.7544h-16.243v-2.7544h2.536c1.636 0 2.209-0.3973 2.209-1.5268v-4.4149l-7.912-8.7288c-1.308-1.5261-1.127-1.8581-4.768-1.8581v-2.8546h14.69v2.8546h-1.046c-1.064 0-1.515 0.19903-1.515 0.59708 0 0.33268 0.327 0.5978 0.532 0.86293l4.003 4.351c0.476 0.49325 1.056 0.55715 1.598-0.06102zm-98.56-8.6053h3.5435v7.9654h-3.2726c-0.2898-1.5922-1.2892-2.2118-2.2003-3.0471-1.644-1.5065-5.2042-2.7609-8.1985-2.7609-3.8648 0-7.1264 1.1956-7.1264 2.9534 0 4.8797 22.102 0.99658 22.102 10.223 0 4.8122-4.7344 7.5005-13.237 7.5005-2.9433 0-7.3973-0.9109-10.025-2.3026-0.82378-0.4743-1.1734 0.4489-1.3278 1.606h-3.6331v-8.2312h3.2864c0.72472 2.0912 1.7233 2.5219 2.6418 3.3522 1.5937 1.4607 5.387 2.5234 8.8657 2.4892 5.245-0.0515 7.0484-1.1948 7.0484-2.8546 0-1.659-1.7838-2.0578-7.5313-2.9534l-4.8801-0.7968c-5.5072-0.8303-9.5168-2.0578-9.5168-6.4386 0-4.5471 5.0724-7.4017 13.092-7.4017 3.3796 0 6.2071 0.45035 8.921 1.9801 0.7517 0.4874 1.4568 0.54551 1.4473-1.2828zm69.154 13.336 0.0699-8.853c0-1.1615-0.606-1.5595-2.3374-1.5595h-2.0343v-2.7544h12.943v2.7544h-1.6868c-1.7328 0-2.3388 0.39878-2.3388 1.5595v17.823l-5.0658-0.0399-16.406-15.493v11.251c0 1.1288 0.606 1.5595 2.3373 1.5595h2.2521v2.7217h-13.442v-2.7217h2.2274c1.7313 0 2.3373-0.4315 2.3373-1.5595v-13.542c0-1.1615-0.606-1.5595-2.3373-1.5595h-2.2274v-2.7544h11.622l14.087 13.167zm-43.355-14.201c-10.315 0-16.772 4.5478-16.772 11.849 0 7.17 6.3674 11.683 16.457 11.683 10.717 0 16.951-4.4468 16.951-12.048 7e-4 -6.8366-6.7265-11.484-16.637-11.484zm-0.2346 20.645c-5.7096 0-8.9916-3.2861-8.9916-8.9619 0-5.5422 3.4247-8.8283 9.2772-8.8283 5.6142 0 8.8962 3.3529 8.8962 9.0614 0 5.5757-3.3301 8.7288-9.1818 8.7288z"/>
</g>
<defs>
<clipPath id="a">
<rect width="136.36" height="24" fill="#fff"/>
</clipPath>
</defs>
</svg>
